X:234
T:Miss Sarah McFadyen
R:jig
M:6/8
L:1/8
K:A
A2 B |: cAF EAc | dcd egb | age d2B | cde dcB | cAF EAc |
dcd egb | age dBe |1 ABA A2B :|2 ABA A2e |:
f2a ecA | BAB cAE | C2E F2A | dcd Bce |
f2a ecA | BAa ecA | C2E F2A |1 GFG A2 e :| 2 GFG A3 |]
